src/assets/images/seminar.svg

<?xml version="1.0"?>
<svg xmlns="http://www.w3.org/2000/svg" viewBox="0 0 512 512" width="512" height="512"><g id="Outline"><path d="M269.657,125.657,283.313,112H312a8.009,8.009,0,0,1,8,8v24a8.009,8.009,0,0,1-8,8H172a8,8,0,0,0-7.995,7.714l-9.146,256,15.991.572L179.723,168H312a24.027,24.027,0,0,0,24-24V120a24.027,24.027,0,0,0-24-24H280a8,8,0,0,0-5.657,2.343L260.687,112H160.617A38.474,38.474,0,0,0,168,89.305V54.7A38.738,38.738,0,0,0,129.306,16H110.694A38.738,38.738,0,0,0,72,54.7v34.61A38.474,38.474,0,0,0,79.383,112H64a40.045,40.045,0,0,0-40,40V288a24.028,24.028,0,0,0,24,24H65.422l6.583,184.286L88,495.714,81.364,310.1A24.037,24.037,0,0,0,96,288V272a8,8,0,0,0-2.343-5.657L80,252.686V176H64v80a8,8,0,0,0,2.343,5.657L80,275.314V288a8.009,8.009,0,0,1-8,8H48a8.009,8.009,0,0,1-8-8V152a24.028,24.028,0,0,1,24-24H264A8,8,0,0,0,269.657,125.657ZM110.694,112A22.721,22.721,0,0,1,88,89.305V54.7A22.721,22.721,0,0,1,110.694,32h18.612A22.721,22.721,0,0,1,152,54.7v34.61A22.721,22.721,0,0,1,129.306,112Z"/><rect x="112" y="304" width="16" height="192"/><path d="M296,424H280.617A38.474,38.474,0,0,0,288,401.305V366.7A38.738,38.738,0,0,0,249.306,328H230.694A38.738,38.738,0,0,0,192,366.7v34.61A38.474,38.474,0,0,0,199.383,424H184a40.045,40.045,0,0,0-40,40v32h16V464a24.027,24.027,0,0,1,24-24H296a24.027,24.027,0,0,1,24,24v32h16V464A40.045,40.045,0,0,0,296,424Zm-65.306,0A22.721,22.721,0,0,1,208,401.305V366.7A22.721,22.721,0,0,1,230.694,344h18.612A22.721,22.721,0,0,1,272,366.7v34.61A22.721,22.721,0,0,1,249.306,424Z"/><path d="M456,424H440.617A38.474,38.474,0,0,0,448,401.305V366.7A38.738,38.738,0,0,0,409.306,328H390.694A38.738,38.738,0,0,0,352,366.7v34.61A38.474,38.474,0,0,0,359.383,424H344v16H456a24.027,24.027,0,0,1,24,24v32h16V464A40.045,40.045,0,0,0,456,424Zm-65.306,0A22.721,22.721,0,0,1,368,401.305V366.7A22.721,22.721,0,0,1,390.694,344h18.612A22.721,22.721,0,0,1,432,366.7v34.61A22.721,22.721,0,0,1,409.306,424Z"/><path d="M504,8H200a8,8,0,0,0-8,8V48a8,8,0,0,0,8,8h8V96h16V56H480V272H224V184H208v96a8,8,0,0,0,8,8H488a8,8,0,0,0,8-8V56h8a8,8,0,0,0,8-8V16A8,8,0,0,0,504,8Zm-8,32H208V24H496Z"/><path d="M464,128a56.063,56.063,0,0,0-56-56,8,8,0,0,0-8,8v40H360a8,8,0,0,0-8,8,56,56,0,0,0,112,0Zm-95.2,8H408a8,8,0,0,0,8-8V88.8A40,40,0,1,1,368.8,136Z"/><rect x="264" y="200" width="16" height="16"/><rect x="296" y="200" width="160" height="16"/><rect x="248" y="232" width="176" height="16"/></g></svg>

<?xml version="1.0" encoding="UTF-8" standalone="no"?><!-- Generator: Gravit.io --><svg xmlns="http://www.w3.org/2000/svg" xmlns:xlink="http://www.w3.org/1999/xlink" style="isolation:isolate" viewBox="0 0 512 512" width="512pt" height="512pt"><defs><clipPath id="_clipPath_mun8v68EyPleERLgut8Qu9iKf6EpTLKD"><rect width="512" height="512"/></clipPath></defs><g clip-path="url(#_clipPath_mun8v68EyPleERLgut8Qu9iKf6EpTLKD)"><path d=" M 269.657 125.657 L 283.313 112 L 312 112 C 316.416 112.005 319.995 115.584 320 120 L 320 144 C 319.995 148.416 316.416 151.995 312 152 L 172 152 C 167.693 152 164.159 155.41 164.005 159.714 L 154.859 415.714 L 170.85 416.286 L 179.723 168 L 312 168 C 325.249 167.985 335.985 157.249 336 144 L 336 120 C 335.985 106.751 325.249 96.015 312 96 L 280 96 C 277.878 96 275.843 96.843 274.343 98.343 L 260.687 112 L 160.617 112 C 165.421 105.409 168.007 97.461 168 89.305 L 168 54.7 C 167.979 33.338 150.668 16.024 129.306 16 L 110.694 16 C 89.332 16.024 72.021 33.338 72 54.7 L 72 89.31 C 71.994 97.465 74.58 105.41 79.383 112 L 64 112 C 41.919 112.025 24.025 129.919 24 152 L 24 288 C 24.015 301.248 34.752 311.985 48 312 L 65.422 312 L 72.005 496.286 L 88 495.714 L 81.364 310.1 C 90.231 306.332 95.991 297.634 96 288 L 96 272 C 96 269.878 95.157 267.843 93.657 266.343 L 80 252.686 L 80 176 L 64 176 L 64 256 C 64 258.122 64.843 260.157 66.343 261.657 L 80 275.314 L 80 288 C 79.995 292.416 76.416 295.995 72 296 L 48 296 C 43.584 295.995 40.005 292.416 40 288 L 40 152 C 40.015 138.752 50.752 128.015 64 128 L 264 128 C 266.122 128 268.157 127.157 269.657 125.657 Z  M 110.694 112 C 98.166 111.985 88.014 101.833 88 89.305 L 88 54.7 C 88.012 42.17 98.164 32.015 110.694 32 L 129.306 32 C 141.836 32.015 151.988 42.17 152 54.7 L 152 89.31 C 151.983 101.836 141.832 111.985 129.306 112 L 110.694 112 Z " fill="rgb(90,90,90)"/><rect x="112" y="304" width="16" height="192" transform="matrix(1,0,0,1,0,0)" fill="rgb(90,90,90)"/><path d=" M 296 424 L 280.617 424 C 285.421 417.409 288.007 409.461 288 401.305 L 288 366.7 C 287.979 345.338 270.668 328.024 249.306 328 L 230.694 328 C 209.332 328.024 192.021 345.338 192 366.7 L 192 401.31 C 191.994 409.465 194.58 417.41 199.383 424 L 184 424 C 161.919 424.025 144.025 441.919 144 464 L 144 496 L 160 496 L 160 464 C 160.015 450.751 170.751 440.015 184 440 L 296 440 C 309.249 440.015 319.985 450.751 320 464 L 320 496 L 336 496 L 336 464 C 335.975 441.919 318.081 424.025 296 424 L 296 424 Z  M 230.694 424 C 218.166 423.985 208.014 413.833 208 401.305 L 208 366.7 C 208.012 354.17 218.164 344.015 230.694 344 L 249.306 344 C 261.836 344.015 271.988 354.17 272 366.7 L 272 401.31 C 271.983 413.836 261.832 423.985 249.306 424 L 230.694 424 Z " fill="rgb(90,90,90)"/><path d=" M 456 424 L 440.617 424 C 445.421 417.409 448.007 409.461 448 401.305 L 448 366.7 C 447.979 345.338 430.668 328.024 409.306 328 L 390.694 328 C 369.332 328.024 352.021 345.338 352 366.7 L 352 401.31 C 351.994 409.465 354.58 417.41 359.383 424 L 344 424 L 344 440 L 456 440 C 469.249 440.015 479.985 450.751 480 464 L 480 496 L 496 496 L 496 464 C 495.975 441.919 478.081 424.025 456 424 L 456 424 Z  M 390.694 424 C 378.166 423.985 368.014 413.833 368 401.305 L 368 366.7 C 368.012 354.17 378.164 344.015 390.694 344 L 409.306 344 C 421.836 344.015 431.988 354.17 432 366.7 L 432 401.31 C 431.983 413.836 421.832 423.985 409.306 424 L 390.694 424 Z " fill="rgb(90,90,90)"/><path d=" M 504 8 L 200 8 C 195.582 8 192 11.582 192 16 L 192 48 C 192 52.418 195.582 56 200 56 L 208 56 L 208 96 L 224 96 L 224 56 L 480 56 L 480 272 L 224 272 L 224 184 L 208 184 L 208 280 C 208 284.418 211.582 288 216 288 L 488 288 C 492.418 288 496 284.418 496 280 L 496 56 L 504 56 C 508.418 56 512 52.418 512 48 L 512 16 C 512 11.582 508.418 8 504 8 Z  M 496 40 L 208 40 L 208 24 L 496 24 L 496 40 Z " fill="rgb(90,90,90)"/><path d=" M 464 128 C 463.965 97.086 438.914 72.035 408 72 C 403.582 72 400 75.582 400 80 L 400 120 L 360 120 C 355.582 120 352 123.582 352 128 C 352 158.928 377.072 184 408 184 C 438.928 184 464 158.928 464 128 Z  M 368.8 136 L 408 136 C 412.418 136 416 132.418 416 128 L 416 88.8 C 435.614 92.809 449.244 110.701 447.899 130.676 C 446.555 150.651 430.651 166.555 410.676 167.899 C 390.701 169.244 372.809 155.614 368.8 136 L 368.8 136 Z " fill="rgb(90,90,90)"/><rect x="264" y="200" width="16" height="16" transform="matrix(1,0,0,1,0,0)" fill="rgb(90,90,90)"/><rect x="296" y="200" width="160" height="16" transform="matrix(1,0,0,1,0,0)" fill="rgb(90,90,90)"/><rect x="248" y="232" width="176" height="16" transform="matrix(1,0,0,1,0,0)" fill="rgb(90,90,90)"/></g></svg>
